images-source/features/track.svg

<?xml version="1.0" encoding="UTF-8"?>
<svg width="78px" height="78px" viewBox="0 0 78 78" version="1.1" xmlns="http://www.w3.org/2000/svg" xmlns:xlink="http://www.w3.org/1999/xlink">
    <!-- Generator: Sketch 48.2 (47327) - http://www.bohemiancoding.com/sketch -->
    <title>track</title>
    <desc>Created with Sketch.</desc>
    <defs></defs>
    <g id="platform" stroke="none" stroke-width="1" fill="none" fill-rule="evenodd" transform="translate(-1058.000000, -4948.000000)">
        <g id="Group-13-Copy" transform="translate(25.000000, 4782.000000)">
            <g id="Group-4" transform="translate(356.000000, 159.000000)">
                <g id="track" transform="translate(677.000000, 7.000000)">
                    <circle id="Oval-3" fill="#FFAF1D" cx="68.5" cy="58.5" r="8.5"></circle>
                    <circle id="Oval-3-Copy" fill="#00AAE3" cx="8.5" cy="58.5" r="8.5"></circle>
                    <circle id="Oval-3-Copy-2" fill="#008215" cx="39.5" cy="9.5" r="8.5"></circle>
                    <g id="share" fill="#000000" fill-rule="nonzero">
                        <path d="M73.0496897,50.886931 C73.6454483,48.3035172 73.9655172,45.6703448 73.9655172,43.0344828 C73.9655172,30.8032759 67.7376207,19.6654138 57.3044483,13.2425172 C56.6683448,12.8525172 55.8426207,13.0502069 55.4539655,13.6822759 C55.0639655,14.3156897 55.2616552,15.1427586 55.8937241,15.5327586 C65.5253793,21.4634483 71.2758621,31.7433103 71.2758621,43.0344828 C71.2758621,45.3556552 71.0068966,47.6754828 70.5052759,49.9563103 C69.8853103,49.8272069 69.2438276,49.7586207 68.5862069,49.7586207 C63.3951724,49.7586207 59.1724138,53.9827241 59.1724138,59.1724138 C59.1724138,64.3621034 63.3951724,68.5862069 68.5862069,68.5862069 C73.7772414,68.5862069 78,64.3621034 78,59.1724138 C78,55.5965172 75.9948621,52.4805517 73.0496897,50.886931 Z M68.5862069,65.8965517 C64.8785172,65.8965517 61.862069,62.8801034 61.862069,59.1724138 C61.862069,55.4647241 64.8785172,52.4482759 68.5862069,52.4482759 C72.2938966,52.4482759 75.3103448,55.4647241 75.3103448,59.1724138 C75.3103448,62.8801034 72.2938966,65.8965517 68.5862069,65.8965517 Z" id="Shape"></path>
                        <path d="M51.3334138,72.8654483 C47.4132414,74.4873103 43.2644483,75.3103448 39,75.3103448 C30.4132759,75.3103448 22.1533448,71.8474138 16.115069,65.7728276 C17.7907241,64.0716207 18.8275862,61.7423793 18.8275862,59.1724138 C18.8275862,53.9827241 14.6048276,49.7586207 9.4137931,49.7586207 C4.22275862,49.7586207 0,53.9827241 0,59.1724138 C0,64.3621034 4.22275862,68.5862069 9.4137931,68.5862069 C11.0625517,68.5862069 12.6117931,68.1572069 13.9606552,67.4094828 C20.522069,74.1484138 29.5781379,78 39,78 C43.6194828,78 48.1152414,77.1083793 52.3622069,75.3493448 C53.048069,75.0655862 53.3748621,74.2788621 53.0911034,73.5916552 C52.8073448,72.9071379 52.0192759,72.5816897 51.3334138,72.8654483 Z M2.68965517,59.1724138 C2.68965517,55.4647241 5.70610345,52.4482759 9.4137931,52.4482759 C13.1214828,52.4482759 16.137931,55.4647241 16.137931,59.1724138 C16.137931,62.8801034 13.1214828,65.8965517 9.4137931,65.8965517 C5.70610345,65.8965517 2.68965517,62.8801034 2.68965517,59.1724138 Z" id="Shape"></path>
                        <path d="M5.37931034,41.9761034 C5.41158621,41.9787931 5.44386207,41.9801379 5.4747931,41.9801379 C6.17544828,41.9801379 6.76448276,41.4395172 6.81558621,40.7294483 C7.77310345,27.1614828 17.0174483,15.8232414 29.9735172,12.0657931 C31.122,15.9684828 34.7301724,18.8275862 39,18.8275862 C44.1910345,18.8275862 48.4137931,14.6034828 48.4137931,9.4137931 C48.4137931,4.22410345 44.1910345,0 39,0 C33.821069,0 29.6063793,4.20527586 29.5875517,9.38017241 C15.357931,13.3433793 5.17893103,25.7131034 4.13265517,40.5411724 C4.0802069,41.2808276 4.63831034,41.925 5.37931034,41.9761034 Z M39,2.68965517 C42.7076897,2.68965517 45.7241379,5.70610345 45.7241379,9.4137931 C45.7241379,13.1214828 42.7076897,16.137931 39,16.137931 C35.2923103,16.137931 32.2758621,13.1214828 32.2758621,9.4137931 C32.2758621,5.70610345 35.2923103,2.68965517 39,2.68965517 Z" id="Shape"></path>
                    </g>
                </g>
            </g>
        </g>
    </g>
</svg>

<svg width="78" height="78" viewBox="0 0 78 78" xmlns="http://www.w3.org/2000/svg"><title>track</title><g fill="none" fill-rule="evenodd"><circle fill="#FFAF1D" cx="68.5" cy="58.5" r="8.5"/><circle fill="#00AAE3" cx="8.5" cy="58.5" r="8.5"/><circle fill="#008215" cx="39.5" cy="9.5" r="8.5"/><g fill="#000" fill-rule="nonzero"><path d="M73.05 50.887a34.96 34.96 0 0 0 .916-7.853c0-12.23-6.228-23.369-16.662-29.791a1.344 1.344 0 1 0-1.41 2.29c9.631 5.93 15.382 16.21 15.382 27.501 0 2.322-.27 4.641-.77 6.922a9.403 9.403 0 0 0-1.92-.197c-5.19 0-9.414 4.224-9.414 9.413 0 5.19 4.223 9.414 9.414 9.414S78 64.362 78 59.172c0-3.575-2.005-6.691-4.95-8.285zm-4.464 15.01a6.732 6.732 0 0 1-6.724-6.725 6.732 6.732 0 0 1 6.724-6.724 6.732 6.732 0 0 1 6.724 6.724 6.732 6.732 0 0 1-6.724 6.725zM51.333 72.865A32.097 32.097 0 0 1 39 75.31c-8.587 0-16.847-3.463-22.885-9.537a9.378 9.378 0 0 0 2.713-6.6c0-5.19-4.223-9.414-9.414-9.414S0 53.983 0 59.172c0 5.19 4.223 9.414 9.414 9.414a9.35 9.35 0 0 0 4.547-1.177C20.522 74.15 29.578 78 39 78c4.62 0 9.115-.892 13.362-2.65a1.346 1.346 0 0 0 .73-1.758 1.346 1.346 0 0 0-1.759-.727zM2.69 59.172a6.732 6.732 0 0 1 6.724-6.724 6.732 6.732 0 0 1 6.724 6.724 6.732 6.732 0 0 1-6.724 6.725 6.732 6.732 0 0 1-6.724-6.725zM5.38 41.976a1.345 1.345 0 0 0 1.436-1.247c.957-13.568 10.201-24.906 23.158-28.663 1.148 3.902 4.756 6.762 9.026 6.762 5.191 0 9.414-4.225 9.414-9.414C48.414 4.224 44.19 0 39 0c-5.179 0-9.394 4.205-9.412 9.38-14.23 3.963-24.41 16.333-25.455 31.161a1.343 1.343 0 0 0 1.246 1.435zM39 2.69a6.732 6.732 0 0 1 6.724 6.724A6.732 6.732 0 0 1 39 16.138a6.732 6.732 0 0 1-6.724-6.724A6.732 6.732 0 0 1 39 2.69z"/></g></g></svg>
